X: 2122
Q: "Strathspey."
M: C
L: 1/8
K: G
uD |\
vG<GG>uA vB>vA (B<d) | G<GG>c (B<d) (A>B) |\
vG<GG>uA vB>vA (B<d) | e>gd>g B>g A :|
|: uc |\
(B<d) (de/f/) g>de>d | (B<d) (de/f/) g>B A2 |\


